www/assets/icons/pan_zoom.svg

<svg xmlns="http://www.w3.org/2000/svg" width="24" height="24" viewBox="0 0 24 24" fill='currentColor'><mask id="a" width="24" height="24" x="0" y="0" maskUnits="userSpaceOnUse" style="mask-type:alpha"><path d="M0 0h24v24H0z"/></mask><g mask="url(#a)"><path d="M3 21v-6h2v2.6l3.1-3.1 1.4 1.4L6.4 19H9v2zM15.9 9.5l-1.4-1.4L17.6 5H15V3h6v6h-2V6.4z"/></g></svg>

<svg width="24" height="24" viewBox="0 0 24 24" xmlns="http://www.w3.org/2000/svg" fill='currentColor'><mask id="mask0_32484_502" style="mask-type:alpha" maskUnits="userSpaceOnUse" x="0" y="0" width="24" height="24"><rect width="24" height="24"/></mask><g mask="url(#mask0_32484_502)"><path d="M3 21V15H5V17.6L8.1 14.5L9.5 15.9L6.4 19H9V21H3ZM15.9 9.5L14.5 8.1L17.6 5H15V3H21V9H19V6.4L15.9 9.5Z"/></g></svg>
